assets/icons/tools/vscode.svg

<svg xmlns="http://www.w3.org/2000/svg" style="isolation:isolate" width="261" height="260"><defs><clipPath id="a"><path d="M0 0h261v260H0z"/></clipPath></defs><g clip-path="url(#a)" fill-rule="evenodd" fill="#007ACC"><path d="M195.475-.006v223.303L.496 194.338l194.979 65.654 65-27.039V31.064l.021-.009-.021-.043v-3.977l-65-27.041z"/><path d="M127.242 38.037L67.521 97.07 31.566 69.992l-14.818 4.949 36.58 36.161-36.58 36.158 14.818 4.951 35.955-27.08h.002l59.717 59.029 35.768-15.197V53.234l-35.766-15.197zm-.002 42.121v61.879l-41.086-30.939 41.086-30.94z"/></g></svg>

<?xml version="1.0" standalone="no"?><!-- Generator: Gravit.io --><svg xmlns="http://www.w3.org/2000/svg" xmlns:xlink="http://www.w3.org/1999/xlink" style="isolation:isolate" viewBox="0 0 261 260" width="261" height="260"><defs><clipPath id="_clipPath_JdRqHjh8JHztfALGY0P9vLMNdCo8Bzma"><rect width="261" height="260"/></clipPath></defs><g clip-path="url(#_clipPath_JdRqHjh8JHztfALGY0P9vLMNdCo8Bzma)"><path d=" M 195.475 -0.006 L 195.475 223.297 L 0.496 194.338 L 195.475 259.992 L 260.475 232.953 L 260.475 31.064 L 260.496 31.055 L 260.475 31.012 L 260.475 27.035 L 195.475 -0.006 L 195.475 -0.006 Z " fill-rule="evenodd" fill="rgb(0,122,204)"/><path d=" M 127.242 38.037 L 67.521 97.07 L 31.566 69.992 L 16.748 74.941 L 53.328 111.102 L 16.748 147.26 L 31.566 152.211 L 67.521 125.131 L 67.523 125.131 L 127.24 184.16 L 163.008 168.963 L 163.008 53.234 L 127.242 38.037 L 127.242 38.037 Z  M 127.24 80.158 L 127.24 142.037 L 86.154 111.098 L 127.24 80.158 L 127.24 80.158 Z " fill-rule="evenodd" fill="rgb(0,122,204)"/></g></svg>
